X: 1
T: Briar Rose
C: Kim McGarrity
R: air
Z: 2004 John Chambers <jc:trillian.mit.edu>
M: C
L: 1/8
K: Dm
A2 \
| "Dm"d2 d>e "(Bb)"f>e d<f | "A7"e>d ^c<e "Dm"d2 d>=c \
| "F"A2 A>G "Dm"F2 G>A | "Gm"B>A G<F "A7"E2 A2 |
y3 \
| "Dm"d2 d>e f2 (3def | "Gm"g>f e<d "A7"^c2 A2 \
| "Dm"d>c "(F)"A>F "Gm"G2 (3GAB | "A7"A>=B ^c<A "Dm"d2 |]
d>e \
| "Dm"f>e d>f A<a a2 | "Gm"g>f e>d "A7"^c<e a2 \
| "C"g>f e>d c>d e>f | "C"g>f e>d "A7"^c<e a2 |
y3 \
| "Dm"f>e d>f A<a a2 | "Gm"g>"(#)"f gg \
| "Dm"f>e d>^c d<A "Gm"G>B | "A7"A<F E>A "Dm"D2 |]
